icons/svg/hackernews.svg

﻿<?xml version="1.0" encoding="utf-8"?>
<!DOCTYPE svg PUBLIC "-//W3C//DTD SVG 1.1//EN" "http://www.w3.org/Graphics/SVG/1.1/DTD/svg11.dtd">
<svg xmlns="http://www.w3.org/2000/svg" xmlns:xlink="http://www.w3.org/1999/xlink" version="1.1" baseProfile="full" width="24" height="24" viewBox="0 0 24.00 24.00" enable-background="new 0 0 24.00 24.00" xml:space="preserve">
	<path fill="#000000" fill-opacity="1" stroke-linejoin="round" d="M 2,2L 22,2L 22,22L 2,22L 2,2 Z M 11.25,17.5L 12.75,17.5L 12.75,13.0612L 16,7L 14.5,7L 12,11.6625L 9.5,7.00001L 8,7L 11.25,13.0612L 11.25,17.5 Z "/>
</svg>

<svg xmlns="http://www.w3.org/2000/svg" version="1.1" baseProfile="full" width="24" height="24" viewBox="0 0 24.00 24.00" xml:space="preserve"><path fill="#000" fill-opacity="1" stroke-linejoin="round" d="M2 2h20v20H2V2zm9.25 15.5h1.5v-4.44L16 7h-1.5L12 11.662 9.5 7H8l3.25 6.06v4.44z"/></svg>
